epam-assets/icon-sources/18/table-table_remove.svg

<svg width="18" height="18" viewBox="0 0 18 18" fill="none" xmlns="http://www.w3.org/2000/svg">
<g id="18/table-table_remove">
<path id="icon" fill-rule="evenodd" clip-rule="evenodd" d="M11.595 12.66L12.66 11.595L14.25 13.1925L15.84 11.595L16.905 12.66L15.3075 14.25L16.905 15.84L15.84 16.905L14.25 15.3075L12.66 16.905L11.595 15.84L13.1925 14.25L11.595 12.66ZM3 3H13.5C14.3284 3 15 3.67157 15 4.5V9.81C13.8375 9.615 12.69 9.885 11.76 10.5H9V13.5H9.81C9.7275 14.01 9.7275 14.5125 9.81 15H3C2.17157 15 1.5 14.3284 1.5 13.5V4.5C1.5 3.67157 2.17157 3 3 3ZM3 6V9H7.5V6H3ZM9 6V9H13.5V6H9ZM3 10.5V13.5H7.5V10.5H3Z" fill="#6C6F80"/>
</g>
</svg>

<svg xmlns="http://www.w3.org/2000/svg" width="18" height="18" fill="none" viewBox="0 0 18 18">
  <path fill="#6C6F80" fill-rule="evenodd" d="m11.595 12.66 1.065-1.065 1.59 1.598 1.59-1.598 1.065 1.065-1.598 1.59 1.598 1.59-1.065 1.065-1.59-1.598-1.59 1.598-1.065-1.065 1.598-1.59-1.598-1.59ZM3 3h10.5A1.5 1.5 0 0 1 15 4.5v5.31a4.508 4.508 0 0 0-3.24.69H9v3h.81a4.576 4.576 0 0 0 0 1.5H3a1.5 1.5 0 0 1-1.5-1.5v-9A1.5 1.5 0 0 1 3 3Zm0 3v3h4.5V6H3Zm6 0v3h4.5V6H9Zm-6 4.5v3h4.5v-3H3Z" clip-rule="evenodd"/>
</svg>
